dist/svg/pttrn-favicon.svg

<svg xmlns="http://www.w3.org/2000/svg" width="263" height="260"><path class="favicon" d="M262.562 8.28859V24.4295V56.7114L221.428 97.2819V121.711L213.113 130H237.619L262.125 154.43V178.859L253.81 186.711H212.676V178.859H179.855V211.141H212.676V202.852H253.81L262.125 211.141V235.57L237.619 260H155.787L131.281 234.698V153.993L155.787 129.564H180.293L171.978 121.275V96.8456L131.281 56.7114V121.275L122.967 129.564H90.1464L49.0116 88.9933V121.275L40.6972 129.564H8.31448L0 121.275V7.85235L8.31448 0H41.1348L82.2695 40.5705V8.28859L90.1464 0H122.967L131.281 8.28859L139.596 0H172.416L180.73 8.28859V24.4295L196.922 40.5705L213.551 24.4295V8.28859L221.428 0H254.248L262.562 8.28859ZM257.311 140.47C254.248 140.47 251.622 138.289 251.622 134.799C251.622 131.309 254.248 129.128 257.311 129.128C260.374 129.128 263 131.309 263 134.799C262.562 138.289 259.937 140.47 257.311 140.47ZM257.311 130.436C254.686 130.436 252.935 132.181 252.935 134.799C252.935 137.416 254.686 139.597 257.311 139.597C259.937 139.597 261.687 137.852 261.687 134.799C261.25 132.181 259.499 130.436 257.311 130.436ZM255.998 138.289H255.123V132.181H257.311C258.624 132.181 259.499 132.617 259.499 133.926C259.499 135.235 258.624 135.671 257.749 135.671L259.499 138.289H258.186L256.436 135.671H255.561V138.289H255.998ZM257.311 134.799C258.186 134.799 258.624 134.799 258.624 133.926C258.624 133.054 257.749 133.054 257.311 133.054H255.998V134.799H257.311Z"/><style>.favicon{fill:#ffdbdb}@media (prefers-color-scheme:light){.favicon{fill:#031553}}</style></svg>

<svg xmlns="http://www.w3.org/2000/svg" width="263" height="260"><path d="M262.562 8.289V56.71l-41.134 40.57v24.43L213.113 130h24.506l24.506 24.43v24.429l-8.315 7.852h-41.134v-7.852h-32.821v32.282h32.821v-8.289h41.134l8.315 8.289v24.429L237.619 260h-81.832l-24.506-25.302v-80.705l24.506-24.429h24.506l-8.315-8.289v-24.43l-40.697-40.134v64.564l-8.314 8.289h-32.82l-41.135-40.57v32.281l-8.315 8.289H8.314L0 121.275V7.852L8.314 0h32.82L82.27 40.57V8.29L90.146 0h32.821l8.314 8.289L139.596 0h32.82l8.314 8.289v16.14l16.192 16.142 16.629-16.141V8.289L221.428 0h32.82l8.314 8.289zm-5.251 132.181c-3.063 0-5.689-2.181-5.689-5.671s2.626-5.671 5.689-5.671 5.689 2.181 5.689 5.671c-.438 3.49-3.063 5.671-5.689 5.671zm0-10.034c-2.625 0-4.376 1.745-4.376 4.363 0 2.617 1.751 4.798 4.376 4.798 2.626 0 4.376-1.745 4.376-4.798-.437-2.618-2.188-4.363-4.376-4.363zm-1.313 7.853h-.875v-6.108h2.188c1.313 0 2.188.436 2.188 1.745 0 1.309-.875 1.745-1.75 1.745l1.75 2.618h-1.313l-1.75-2.618h-.875v2.618h.437zm1.313-3.49c.875 0 1.313 0 1.313-.873 0-.872-.875-.872-1.313-.872h-1.313v1.745h1.313z" fill="#ffdbdb"/><style></style></svg>
